src/assets/number-three-icon.svg

<svg width="253" height="253" fill="none" xmlns="http://www.w3.org/2000/svg"><circle cx="126.5" cy="125.5" r="108.5" fill="#fff"/><circle cx="126.357" cy="126.357" r="87" transform="rotate(30 126.357 126.357)" fill="#fff" stroke="url(#paint0_linear_940_1390)" stroke-width="11"/><path d="M125.983 163.776c-6.438 0-12.136-1.702-17.094-5.106-4.884-3.404-8.251-8.362-10.101-14.874l13.764-5.439c.888 3.626 2.479 6.438 4.773 8.436 2.294 1.924 5.18 2.886 8.658 2.886 3.182 0 5.92-.962 8.214-2.886 2.368-1.924 3.552-4.366 3.552-7.326 0-3.182-1.258-5.698-3.774-7.548-2.442-1.924-5.772-2.886-9.99-2.886h-6.549v-13.209h5.994c3.256 0 5.994-.814 8.214-2.442 2.294-1.628 3.441-3.996 3.441-7.104 0-2.516-.925-4.588-2.775-6.216-1.85-1.628-4.218-2.442-7.104-2.442-3.034 0-5.476.814-7.326 2.442-1.85 1.628-3.145 3.663-3.885 6.105l-13.209-5.439c1.554-4.44 4.403-8.288 8.547-11.544 4.218-3.256 9.546-4.884 15.984-4.884 4.736 0 8.954.888 12.654 2.664 3.774 1.776 6.697 4.218 8.769 7.326 2.072 3.034 3.108 6.475 3.108 10.323 0 4.07-.962 7.548-2.886 10.434-1.85 2.886-4.107 4.995-6.771 6.327v.888c3.7 1.48 6.697 3.811 8.991 6.993 2.294 3.182 3.441 7.03 3.441 11.544 0 4.366-1.11 8.288-3.33 11.766-2.22 3.478-5.365 6.216-9.435 8.214-3.996 1.998-8.621 2.997-13.875 2.997z" fill="url(#paint1_linear_940_1390)"/><defs><linearGradient id="paint0_linear_940_1390" x1="126.357" y1="33.857" x2="126.357" y2="218.857" gradientUnits="userSpaceOnUse"><stop stop-color="#024EC9"/><stop offset="1" stop-color="#89B6FF"/></linearGradient><linearGradient id="paint1_linear_940_1390" x1="126" y1="100" x2="126" y2="151" gradientUnits="userSpaceOnUse"><stop stop-color="#024EC9"/><stop offset="1" stop-color="#89B6FF"/></linearGradient></defs></svg>

<svg width="253" height="253" viewBox="0 0 253 253" fill="none" xmlns="http://www.w3.org/2000/svg">
<circle cx="126.5" cy="125.5" r="108.5" fill="white"/>
<circle cx="126.357" cy="126.357" r="87" transform="rotate(30 126.357 126.357)" fill="white" stroke="url(#paint0_linear_940_1390)" stroke-width="11"/>
<path d="M125.983 163.776C119.545 163.776 113.847 162.074 108.889 158.67C104.005 155.266 100.638 150.308 98.7877 143.796L112.552 138.357C113.44 141.983 115.031 144.795 117.325 146.793C119.619 148.717 122.505 149.679 125.983 149.679C129.165 149.679 131.903 148.717 134.197 146.793C136.565 144.869 137.749 142.427 137.749 139.467C137.749 136.285 136.491 133.769 133.975 131.919C131.533 129.995 128.203 129.033 123.985 129.033H117.436V115.824H123.43C126.686 115.824 129.424 115.01 131.644 113.382C133.938 111.754 135.085 109.386 135.085 106.278C135.085 103.762 134.16 101.69 132.31 100.062C130.46 98.434 128.092 97.62 125.206 97.62C122.172 97.62 119.73 98.434 117.88 100.062C116.03 101.69 114.735 103.725 113.995 106.167L100.786 100.728C102.34 96.288 105.189 92.44 109.333 89.184C113.551 85.928 118.879 84.3 125.317 84.3C130.053 84.3 134.271 85.188 137.971 86.964C141.745 88.74 144.668 91.182 146.74 94.29C148.812 97.324 149.848 100.765 149.848 104.613C149.848 108.683 148.886 112.161 146.962 115.047C145.112 117.933 142.855 120.042 140.191 121.374V122.262C143.891 123.742 146.888 126.073 149.182 129.255C151.476 132.437 152.623 136.285 152.623 140.799C152.623 145.165 151.513 149.087 149.293 152.565C147.073 156.043 143.928 158.781 139.858 160.779C135.862 162.777 131.237 163.776 125.983 163.776Z" fill="url(#paint1_linear_940_1390)"/>
<defs>
<linearGradient id="paint0_linear_940_1390" x1="126.357" y1="33.8573" x2="126.357" y2="218.857" gradientUnits="userSpaceOnUse">
<stop stop-color="#024EC9"/>
<stop offset="1" stop-color="#89B6FF"/>
</linearGradient>
<linearGradient id="paint1_linear_940_1390" x1="126" y1="100" x2="126" y2="151" gradientUnits="userSpaceOnUse">
<stop stop-color="#024EC9"/>
<stop offset="1" stop-color="#89B6FF"/>
</linearGradient>
</defs>
</svg>
